X: 38409
T: Star Of Munster, The
R: reel
M: 4/4
K: Gmixolydian
|:BAGB AGFA|GBAG FGEG|DGGG DG (3ABc|dggg fdcA|
BAGB AGFA|GBAG FGEG|DGGG DG (3ABc|1 d2cA G3A:|2 dfcA BGG2||
g3a gddd|gdad gfde|ffeg fccc|fgag fdcf|
dggf gddd|gdad gfde|ffdf ggfg|ac' ag fdcf|
dggf gddd|gdad gfde|ffeg fccc|fgag fdcf|
dggf gddd|gdad gfde|ffdf ggfg|a2 ag fdcA||

